packages/core/src/svgs/k21.svg

<svg width="24" height="24" viewBox="0 0 24 24" fill="none" xmlns="http://www.w3.org/2000/svg">
<g clip-path="url(#clip0_31_12205)">
<path d="M0 0H24V24H0V0Z" fill="#F0F3FA"/>
<path d="M8.62718 5.25H11.0357V5.73429H8.62289V5.25H8.62718ZM11.52 5.25H15.3772V5.73429H11.52V5.25ZM6.6986 6.45429H12.9643V6.69429H6.69432V6.45429H6.6986ZM6.45432 6.81H9.95146V7.17857H6.45432V6.81ZM10.5557 6.86571H13.8172V7.17857H10.5515V6.86571H10.5557ZM5.92289 7.66286H16.8215V8.02714H5.92289V7.65857V7.66286ZM5.25003 8.73857H14.4129V9.10714H5.25003V8.73857ZM4.81718 9.59143H14.4086V9.95571H4.82146V9.58714L4.81718 9.59143ZM4.77003 10.5557H12.7243V10.7443H4.76575V10.5514L4.77003 10.5557ZM4.77003 11.52H12.4843V11.7086H4.77003V11.5157V11.52ZM4.77003 12H13.9286V12.4843H4.76575V12H4.77003ZM4.77003 12.9643H13.4443V13.4486H4.77003V12.9643ZM5.01003 13.9286H10.0715V14.1214H5.01003V13.9286ZM10.5557 13.9286H13.4486V14.4129H10.5557V13.9286ZM16.3415 14.8929H18.99V15.0857H16.3372V14.8929H16.3415ZM5.01003 14.8929H10.3115V15.0857H5.01432V14.8929H5.01003Z" fill="#2B2A29"/>
<path d="M10.0714 14.8931H16.3414V15.3774H10.0714V14.8931ZM5.73425 15.8574H11.0057V16.0502H5.73425V15.8574ZM11.52 15.8574H15.8571V16.3416H11.5157V15.8574H11.52ZM10.0714 16.8216H14.4128V17.3059H10.0714V16.8216ZM7.17854 17.7859H11.52V18.2702H7.90282L7.17854 17.7859Z" fill="#2B2A29"/>
<path d="M6.21423 16.8213H11.4985V17.0141H6.21423V16.8213Z" fill="#2B2A29"/>
<path fill-rule="evenodd" clip-rule="evenodd" d="M4.71433 12.0001C4.69049 12.9714 4.86117 13.9377 5.21635 14.8421C5.57153 15.7465 6.10402 16.5707 6.78249 17.2663C7.46096 17.9618 8.2717 18.5146 9.167 18.8921C10.0623 19.2697 11.0241 19.4643 11.9957 19.4646C12.9674 19.4649 13.9292 19.2708 14.8248 18.8938C15.7203 18.5168 16.5313 17.9645 17.2102 17.2694C17.8891 16.5742 18.4221 15.7503 18.7778 14.8461C19.1335 13.9419 19.3048 12.9757 19.2815 12.0044C19.2359 10.1032 18.4488 8.29521 17.0883 6.96652C15.7278 5.63782 13.9017 4.89373 12 4.89317C10.0983 4.89262 8.27176 5.63563 6.91046 6.96352C5.54916 8.29142 4.76101 10.0989 4.71433 12.0001ZM4.28576 12.0001C4.26124 13.0281 4.44252 14.0507 4.81893 15.0077C5.19535 15.9647 5.7593 16.8368 6.47763 17.5726C7.19596 18.3085 8.05418 18.8933 9.00181 19.2927C9.94944 19.6921 10.9674 19.898 11.9957 19.8983C13.0241 19.8986 14.0421 19.6933 14.99 19.2944C15.9378 18.8955 16.7963 18.3112 17.5151 17.5757C18.2338 16.8402 18.7983 15.9685 19.1752 15.0117C19.5522 14.0549 19.734 13.0324 19.71 12.0044C19.6631 9.99043 18.8303 8.07475 17.3896 6.66678C15.9488 5.25882 14.0145 4.47029 12 4.46973C9.98553 4.46917 8.05075 5.25663 6.60922 6.66379C5.1677 8.07095 4.3338 9.98617 4.28576 12.0001Z" fill="#F0F3FA"/>
</g>
<defs>
<clipPath id="clip0_31_12205">
<rect width="24" height="24" fill="white"/>
</clipPath>
</defs>
</svg>

<svg xmlns="http://www.w3.org/2000/svg" width="24" height="24" fill="none" viewBox="0 0 24 24"><g clip-path="url(#a)"><path fill="#F0F3FA" d="M0 0h24v24H0z"/><path fill="#2B2A29" d="M8.627 5.25h2.409v.484H8.623V5.25zm2.893 0h3.857v.484H11.52zM6.699 6.454h6.265v.24h-6.27v-.24zm-.245.356h3.497v.369H6.454zm4.102.056h3.261v.313h-3.265v-.313zm-4.633.797h10.899v.364h-10.9V7.66zM5.25 8.739h9.163v.368H5.25zm-.433.852h9.592v.365H4.82v-.369zm-.047.965h7.954v.188H4.766v-.193zm0 .964h7.714v.189H4.77v-.193zm0 .48h9.159v.484H4.766V12zm0 .964h8.674v.485H4.77zm.24.965h5.062v.192H5.01zm5.546 0h2.893v.484h-2.893zm5.786.964h2.648v.193h-2.653v-.193zm-11.332 0h5.302v.193H5.014v-.193z"/><path fill="#2B2A29" d="M10.071 14.893h6.27v.484h-6.27zm-4.337.964h5.272v.193H5.734zm5.786 0h4.337v.485h-4.341v-.485zm-1.449.965h4.342v.484H10.07zm-2.892.964h4.341v.484H7.903z"/><path fill="#2B2A29" d="M6.214 16.821h5.284v.193H6.215z"/><path fill="#F0F3FA" fill-rule="evenodd" d="M4.714 12a7.286 7.286 0 1 0 14.567.358A7.286 7.286 0 0 0 4.714 12m-.428 0a7.714 7.714 0 1 0 15.424.368A7.714 7.714 0 0 0 4.286 12" clip-rule="evenodd"/></g><defs><clipPath id="a"><path fill="#fff" d="M0 0h24v24H0z"/></clipPath></defs></svg>
